src/assets/svgs/refactor/story-value-neutrality.svg

<svg fill="none" height="33" viewBox="0 0 38 33" width="38" xmlns="http://www.w3.org/2000/svg" xmlns:xlink="http://www.w3.org/1999/xlink"><clipPath id="a"><path d="m0 0h38v33h-38z"/></clipPath><g clip-path="url(#a)"><path d="m2.81437 20.8611 3.96625-10.0576 3.96628 10.0576zm24.32003 0 3.9662-10.0576 3.9663 10.0576h-7.9444zm-6.7807-12.75246h9.0013l-4.8331 12.23516c-.0713.1684-.1069.3368-.1069.5173 0 4.0062 4.1563 5.498 6.7806 5.498 2.6244 0 6.7806-1.4918 6.7806-5.498 0-.1805-.0356-.3489-.1068-.5173l-5.415-13.8232h-.0119l-.0712-.1564-.0357-.03609s-.0594-.10828-.1069-.1564h-.0118l-.1069-.12031s0 0-.0119 0c0 0 0 0 0-.01203l-.1543-.1203-.1307-.07219h-.0356l-.1662-.07218h-.1188-11.1506v-4.40321c0-.36092-.1425-.709806-.3919-.974479-.2494-.252643-.6056-.397011-.9619-.397011-.3562 0-.7006.144368-.9618.397011-.2494.252643-.3919.613559-.3919.974479v4.40321h-11.25753l-.16624.07218h-.03563l-.13062.07219-.15438.1203v.01203s0 0-.01188 0l-.10687.12031h-.01187s-.08313.09624-.10688.1564l-.03562.03609-.07125.1564h-.01188l-5.426875 13.8232c-.07125.1684-.095.3368-.106875.5173 0 4.0062 4.15625 5.498 6.78062 5.498 2.62438 0 6.78058-1.4918 6.78058-5.498 0-.1805-.0356-.3489-.1068-.5173l-4.82127-12.23516h9.01307v22.13636h-2.7193c-.3563 0-.7006.1444-.9619.397-.2612.2526-.3919.6136-.3919.9745s.1425.7098.3919.9745c.2494.2646.6056.397.9619.397h8.1462c.3563 0 .7007-.1444.9619-.397.2612-.2527.3919-.6136.3919-.9745s-.1425-.7098-.3919-.9745-.6056-.397-.9619-.397h-2.7194z" fill="#fff8f3"/></g></svg>

<svg width="38" height="33" viewBox="0 0 38 33" fill="none" xmlns="http://www.w3.org/2000/svg">
<g id="Layer_2" clip-path="url(#clip0_4472_4841)">
<path id="Vector" d="M2.81437 20.8611L6.78062 10.8035L10.7469 20.8611H2.81437ZM27.1344 20.8611L31.1006 10.8035L35.0669 20.8611H27.1225H27.1344ZM20.3537 8.10864H29.355L24.5219 20.3438C24.4506 20.5122 24.415 20.6806 24.415 20.8611C24.415 24.8673 28.5713 26.3591 31.1956 26.3591C33.82 26.3591 37.9762 24.8673 37.9762 20.8611C37.9762 20.6806 37.9406 20.5122 37.8694 20.3438L32.4544 6.5206H32.4425L32.3713 6.3642L32.3356 6.32811C32.3356 6.32811 32.2762 6.21983 32.2287 6.17171H32.2169L32.11 6.0514C32.11 6.0514 32.11 6.0514 32.0981 6.0514C32.0981 6.0514 32.0981 6.0514 32.0981 6.03937L31.9438 5.91907L31.8131 5.84688H31.7775L31.6113 5.7747H31.4925H20.3419V1.37149C20.3419 1.01057 20.1994 0.661684 19.95 0.397011C19.7006 0.144368 19.3444 0 18.9881 0C18.6319 0 18.2875 0.144368 18.0263 0.397011C17.7769 0.649654 17.6344 1.01057 17.6344 1.37149V5.7747H6.37687L6.21063 5.84688H6.175L6.04438 5.91907L5.89 6.03937C5.89 6.03937 5.89 6.03937 5.89 6.0514C5.89 6.0514 5.89 6.0514 5.87812 6.0514L5.77125 6.17171H5.75938C5.75938 6.17171 5.67625 6.26795 5.6525 6.32811L5.61688 6.3642L5.54563 6.5206H5.53375L0.106875 20.3438C0.035625 20.5122 0.011875 20.6806 0 20.8611C0 24.8673 4.15625 26.3591 6.78062 26.3591C9.405 26.3591 13.5612 24.8673 13.5612 20.8611C13.5612 20.6806 13.5256 20.5122 13.4544 20.3438L8.63313 8.10864H17.6462V30.245H14.9269C14.5706 30.245 14.2263 30.3894 13.965 30.642C13.7038 30.8946 13.5731 31.2556 13.5731 31.6165C13.5731 31.9774 13.7156 32.3263 13.965 32.591C14.2144 32.8556 14.5706 32.988 14.9269 32.988H23.0731C23.4294 32.988 23.7738 32.8436 24.035 32.591C24.2962 32.3383 24.4269 31.9774 24.4269 31.6165C24.4269 31.2556 24.2844 30.9067 24.035 30.642C23.7856 30.3773 23.4294 30.245 23.0731 30.245H20.3537V8.10864Z" fill="#FFF8F3"/>
</g>
<defs>
<clipPath id="clip0_4472_4841">
<rect width="38" height="33" fill="white"/>
</clipPath>
</defs>
</svg>
